X: 29
T:L'ORIENTALE
M:4/4
L:1/8
Q:1/4=60
C:Philippe PRIEUR
K:G
C: Philippe PRIEUR
|:GBdBGBdB|cB/2c/2AB/2c/2 de/2d/2e/2d/2e/2d/2|GBdB GBdB|cB/2c/2A/2B/2c/2
d/2 G2G3/2A/2:|!
|:dc/2d/2ed B/2c/2A/2B/2G2|dc/2d/2ed c/2d/2B/2c/2AA/2B/2|cded f3/2e/2de|
dBcB/2A/2 G2G2:|
